X: 225
T:Breton Number 2
M:4/4
L:1/8
S:Calico
D:Calico:Celanova Square Breton Set (ii)
Z: Richard Moon
K:D
e3 f d2 ef|e2 dc B2 B2|edef dfaf|e2 dcB2B2:||!
e/2f/2g ag fgfg|e2d/2e/2f e2 B2|e/2f/2g ag fgfg|e2 df e2e2:||

